images/5771709.svg

<?xml version="1.0" encoding="UTF-8"?>
<svg xmlns="http://www.w3.org/2000/svg" xmlns:xlink="http://www.w3.org/1999/xlink" width="300pt" height="300pt" viewBox="0 0 300 300" version="1.1">
<defs>
<g>
<symbol overflow="visible" id="glyph0-0">
<path style="stroke:none;" d="M 0.453125 1.59375 L 0.453125 -6.34375 L 4.953125 -6.34375 L 4.953125 1.59375 Z M 0.953125 1.09375 L 4.453125 1.09375 L 4.453125 -5.84375 L 0.953125 -5.84375 Z M 0.953125 1.09375 "/>
</symbol>
<symbol overflow="visible" id="glyph0-1">
<path style="stroke:none;" d="M 3.546875 -5.953125 C 2.898438 -5.953125 2.382812 -5.710938 2 -5.234375 C 1.625 -4.753906 1.4375 -4.101562 1.4375 -3.28125 C 1.4375 -2.445312 1.625 -1.789062 2 -1.3125 C 2.382812 -0.832031 2.898438 -0.59375 3.546875 -0.59375 C 4.191406 -0.59375 4.703125 -0.832031 5.078125 -1.3125 C 5.453125 -1.789062 5.640625 -2.445312 5.640625 -3.28125 C 5.640625 -4.101562 5.453125 -4.753906 5.078125 -5.234375 C 4.703125 -5.710938 4.191406 -5.953125 3.546875 -5.953125 Z M 3.546875 -6.6875 C 4.460938 -6.6875 5.195312 -6.375 5.75 -5.75 C 6.300781 -5.132812 6.578125 -4.3125 6.578125 -3.28125 C 6.578125 -2.238281 6.300781 -1.410156 5.75 -0.796875 C 5.195312 -0.179688 4.460938 0.125 3.546875 0.125 C 2.617188 0.125 1.878906 -0.179688 1.328125 -0.796875 C 0.773438 -1.410156 0.5 -2.238281 0.5 -3.28125 C 0.5 -4.3125 0.773438 -5.132812 1.328125 -5.75 C 1.878906 -6.375 2.617188 -6.6875 3.546875 -6.6875 Z M 3.546875 -6.6875 "/>
</symbol>
<symbol overflow="visible" id="glyph0-2">
<path style="stroke:none;" d="M 0.890625 -6.5625 L 2.078125 -6.5625 L 4.984375 -1.078125 L 4.984375 -6.5625 L 5.84375 -6.5625 L 5.84375 0 L 4.65625 0 L 1.75 -5.484375 L 1.75 0 L 0.890625 0 Z M 0.890625 -6.5625 "/>
</symbol>
<symbol overflow="visible" id="glyph0-3">
<path style="stroke:none;" d="M 0.890625 -6.5625 L 1.765625 -6.5625 L 1.765625 -3.875 L 5 -3.875 L 5 -6.5625 L 5.890625 -6.5625 L 5.890625 0 L 5 0 L 5 -3.125 L 1.765625 -3.125 L 1.765625 0 L 0.890625 0 Z M 0.890625 -6.5625 "/>
</symbol>
</g>
</defs>
<g id="surface45769">
<rect x="0" y="0" width="300" height="300" style="fill:rgb(100%,100%,100%);fill-opacity:1;stroke:none;"/>
<path style="fill:none;stroke-width:1.2;stroke-linecap:butt;stroke-linejoin:miter;stroke:rgb(0%,0%,0%);stroke-opacity:1;stroke-miterlimit:10;" d="M 70.234375 198.199219 L 45.144531 195.136719 "/>
<path style="fill:none;stroke-width:1.2;stroke-linecap:butt;stroke-linejoin:miter;stroke:rgb(0%,0%,0%);stroke-opacity:1;stroke-miterlimit:10;" d="M 68.445312 191.988281 L 48.375 189.539062 "/>
<path style="fill:none;stroke-width:1.2;stroke-linecap:butt;stroke-linejoin:miter;stroke:rgb(0%,0%,0%);stroke-opacity:1;stroke-miterlimit:10;" d="M 85.425781 178 L 70.234375 198.199219 "/>
<path style="fill:none;stroke-width:1.2;stroke-linecap:butt;stroke-linejoin:miter;stroke:rgb(0%,0%,0%);stroke-opacity:1;stroke-miterlimit:10;" d="M 45.144531 195.136719 L 35.25 171.878906 "/>
<path style="fill:none;stroke-width:1.2;stroke-linecap:butt;stroke-linejoin:miter;stroke:rgb(0%,0%,0%);stroke-opacity:1;stroke-miterlimit:10;" d="M 35.25 171.878906 L 50.445312 151.683594 "/>
<path style="fill:none;stroke-width:1.2;stroke-linecap:butt;stroke-linejoin:miter;stroke:rgb(0%,0%,0%);stroke-opacity:1;stroke-miterlimit:10;" d="M 41.523438 173.4375 L 53.675781 157.277344 "/>
<path style="fill:none;stroke-width:1.2;stroke-linecap:butt;stroke-linejoin:miter;stroke:rgb(0%,0%,0%);stroke-opacity:1;stroke-miterlimit:10;" d="M 50.445312 151.683594 L 75.535156 154.742188 "/>
<path style="fill:none;stroke-width:1.2;stroke-linecap:butt;stroke-linejoin:miter;stroke:rgb(0%,0%,0%);stroke-opacity:1;stroke-miterlimit:10;" d="M 50.445312 151.683594 L 45.496094 140.054688 "/>
<path style="fill:none;stroke-width:1.2;stroke-linecap:butt;stroke-linejoin:miter;stroke:rgb(100%,0%,0%);stroke-opacity:1;stroke-miterlimit:10;" d="M 45.496094 140.054688 L 40.550781 128.425781 "/>
<path style="fill:none;stroke-width:1.2;stroke-linecap:butt;stroke-linejoin:miter;stroke:rgb(0%,0%,0%);stroke-opacity:1;stroke-miterlimit:10;" d="M 75.535156 154.742188 L 85.425781 178 "/>
<path style="fill:none;stroke-width:1.2;stroke-linecap:butt;stroke-linejoin:miter;stroke:rgb(0%,0%,0%);stroke-opacity:1;stroke-miterlimit:10;" d="M 71.050781 159.398438 L 78.964844 178.003906 "/>
<path style="fill:none;stroke-width:1.2;stroke-linecap:butt;stroke-linejoin:miter;stroke:rgb(0%,0%,0%);stroke-opacity:1;stroke-miterlimit:10;" d="M 75.535156 154.742188 L 90.726562 134.546875 "/>
<path style="fill:none;stroke-width:1.2;stroke-linecap:butt;stroke-linejoin:miter;stroke:rgb(0%,0%,0%);stroke-opacity:1;stroke-miterlimit:10;" d="M 90.726562 134.546875 L 115.816406 137.605469 "/>
<path style="fill:none;stroke-width:1.2;stroke-linecap:butt;stroke-linejoin:miter;stroke:rgb(0%,0%,0%);stroke-opacity:1;stroke-miterlimit:10;" d="M 92.515625 140.753906 L 112.585938 143.203125 "/>
<path style="fill:none;stroke-width:1.2;stroke-linecap:butt;stroke-linejoin:miter;stroke:rgb(0%,0%,0%);stroke-opacity:1;stroke-miterlimit:10;" d="M 115.816406 137.605469 L 133.039062 119.109375 "/>
<path style="fill:none;stroke-width:1.2;stroke-linecap:butt;stroke-linejoin:miter;stroke:rgb(0%,0%,0%);stroke-opacity:1;stroke-miterlimit:10;" d="M 115.816406 137.605469 L 121.953125 148.652344 "/>
<path style="fill:none;stroke-width:1.2;stroke-linecap:butt;stroke-linejoin:miter;stroke:rgb(0%,0%,100%);stroke-opacity:1;stroke-miterlimit:10;" d="M 121.953125 148.652344 L 128.085938 159.703125 "/>
<path style="fill:none;stroke-width:1.2;stroke-linecap:butt;stroke-linejoin:miter;stroke:rgb(0%,0%,0%);stroke-opacity:1;stroke-miterlimit:10;" d="M 135.957031 118.539062 L 133.535156 106.132812 "/>
<path style="fill:none;stroke-width:1.2;stroke-linecap:butt;stroke-linejoin:miter;stroke:rgb(100%,0%,0%);stroke-opacity:1;stroke-miterlimit:10;" d="M 133.535156 106.132812 L 131.113281 93.730469 "/>
<path style="fill:none;stroke-width:1.2;stroke-linecap:butt;stroke-linejoin:miter;stroke:rgb(0%,0%,0%);stroke-opacity:1;stroke-miterlimit:10;" d="M 130.121094 119.675781 L 127.699219 107.273438 "/>
<path style="fill:none;stroke-width:1.2;stroke-linecap:butt;stroke-linejoin:miter;stroke:rgb(100%,0%,0%);stroke-opacity:1;stroke-miterlimit:10;" d="M 127.699219 107.273438 L 125.277344 94.871094 "/>
<path style="fill:none;stroke-width:1.2;stroke-linecap:butt;stroke-linejoin:miter;stroke:rgb(0%,0%,0%);stroke-opacity:1;stroke-miterlimit:10;" d="M 133.039062 119.109375 L 144.496094 124.4375 "/>
<path style="fill:none;stroke-width:1.2;stroke-linecap:butt;stroke-linejoin:miter;stroke:rgb(0%,0%,100%);stroke-opacity:1;stroke-miterlimit:10;" d="M 144.496094 124.4375 L 155.953125 129.769531 "/>
<path style=" stroke:none;fill-rule:nonzero;fill:rgb(100%,100%,100%);fill-opacity:1;" d="M 124.195312 88.800781 L 132.195312 88.800781 L 132.195312 99.800781 L 124.195312 99.800781 Z M 124.195312 88.800781 "/>
<g style="fill:rgb(100%,0%,0%);fill-opacity:1;">
  <use xlink:href="#glyph0-1" x="124.195312" y="97.463867"/>
</g>
<path style="fill:none;stroke-width:1.2;stroke-linecap:butt;stroke-linejoin:miter;stroke:rgb(0%,0%,100%);stroke-opacity:1;stroke-miterlimit:10;" d="M 155.953125 129.769531 L 154.425781 142.316406 "/>
<path style="fill:none;stroke-width:1.2;stroke-linecap:butt;stroke-linejoin:miter;stroke:rgb(0%,0%,0%);stroke-opacity:1;stroke-miterlimit:10;" d="M 154.425781 142.316406 L 152.894531 154.859375 "/>
<path style="fill:none;stroke-width:1.2;stroke-linecap:butt;stroke-linejoin:miter;stroke:rgb(0%,0%,100%);stroke-opacity:1;stroke-miterlimit:10;" d="M 155.953125 129.769531 L 167.003906 123.636719 "/>
<path style="fill:none;stroke-width:1.2;stroke-linecap:butt;stroke-linejoin:miter;stroke:rgb(0%,0%,0%);stroke-opacity:1;stroke-miterlimit:10;" d="M 167.003906 123.636719 L 178.050781 117.5 "/>
<path style=" stroke:none;fill-rule:nonzero;fill:rgb(100%,100%,100%);fill-opacity:1;" d="M 152.953125 124.269531 L 159.953125 124.269531 L 159.953125 135.269531 L 152.953125 135.269531 Z M 152.953125 124.269531 "/>
<g style="fill:rgb(0%,0%,100%);fill-opacity:1;">
  <use xlink:href="#glyph0-2" x="152.953125" y="132.932617"/>
</g>
<path style="fill:none;stroke-width:1.2;stroke-linecap:butt;stroke-linejoin:miter;stroke:rgb(0%,0%,0%);stroke-opacity:1;stroke-miterlimit:10;" d="M 150.617188 156.773438 L 157.203125 164.609375 "/>
<path style="fill:none;stroke-width:1.2;stroke-linecap:butt;stroke-linejoin:miter;stroke:rgb(100%,0%,0%);stroke-opacity:1;stroke-miterlimit:10;" d="M 157.203125 164.609375 L 163.789062 172.445312 "/>
<path style="fill:none;stroke-width:1.2;stroke-linecap:butt;stroke-linejoin:miter;stroke:rgb(0%,0%,0%);stroke-opacity:1;stroke-miterlimit:10;" d="M 155.171875 152.945312 L 161.757812 160.78125 "/>
<path style="fill:none;stroke-width:1.2;stroke-linecap:butt;stroke-linejoin:miter;stroke:rgb(100%,0%,0%);stroke-opacity:1;stroke-miterlimit:10;" d="M 161.757812 160.78125 L 168.34375 168.617188 "/>
<path style="fill:none;stroke-width:1.2;stroke-linecap:butt;stroke-linejoin:miter;stroke:rgb(0%,0%,0%);stroke-opacity:1;stroke-miterlimit:10;" d="M 152.894531 154.859375 L 140.492188 157.28125 "/>
<path style="fill:none;stroke-width:1.2;stroke-linecap:butt;stroke-linejoin:miter;stroke:rgb(0%,0%,100%);stroke-opacity:1;stroke-miterlimit:10;" d="M 140.492188 157.28125 L 128.085938 159.703125 "/>
<path style=" stroke:none;fill-rule:nonzero;fill:rgb(100%,100%,100%);fill-opacity:1;" d="M 162.066406 165.03125 L 170.066406 165.03125 L 170.066406 176.03125 L 162.066406 176.03125 Z M 162.066406 165.03125 "/>
<g style="fill:rgb(100%,0%,0%);fill-opacity:1;">
  <use xlink:href="#glyph0-1" x="162.066406" y="173.694336"/>
</g>
<path style=" stroke:none;fill-rule:nonzero;fill:rgb(100%,100%,100%);fill-opacity:1;" d="M 121.085938 154.203125 L 135.085938 154.203125 L 135.085938 165.203125 L 121.085938 165.203125 Z M 121.085938 154.203125 "/>
<g style="fill:rgb(0%,0%,100%);fill-opacity:1;">
  <use xlink:href="#glyph0-2" x="121.085938" y="162.866211"/>
  <use xlink:href="#glyph0-3" x="128.063477" y="162.866211"/>
</g>
<path style="fill:none;stroke-width:1.2;stroke-linecap:butt;stroke-linejoin:miter;stroke:rgb(0%,0%,0%);stroke-opacity:1;stroke-miterlimit:10;" d="M 178.050781 117.5 L 199.726562 130.5 "/>
<path style="fill:none;stroke-width:1.2;stroke-linecap:butt;stroke-linejoin:miter;stroke:rgb(0%,0%,0%);stroke-opacity:1;stroke-miterlimit:10;" d="M 177.160156 123.898438 L 194.5 134.300781 "/>
<path style="fill:none;stroke-width:1.2;stroke-linecap:butt;stroke-linejoin:miter;stroke:rgb(0%,0%,0%);stroke-opacity:1;stroke-miterlimit:10;" d="M 199.726562 130.5 L 199.304688 155.769531 "/>
<path style="fill:none;stroke-width:1.2;stroke-linecap:butt;stroke-linejoin:miter;stroke:rgb(0%,0%,0%);stroke-opacity:1;stroke-miterlimit:10;" d="M 199.726562 130.5 L 221.820312 118.230469 "/>
<path style="fill:none;stroke-width:1.2;stroke-linecap:butt;stroke-linejoin:miter;stroke:rgb(0%,0%,0%);stroke-opacity:1;stroke-miterlimit:10;" d="M 197.554688 153.367188 L 189.277344 159.390625 "/>
<path style="fill:none;stroke-width:1.2;stroke-linecap:butt;stroke-linejoin:miter;stroke:rgb(100%,0%,0%);stroke-opacity:1;stroke-miterlimit:10;" d="M 189.277344 159.390625 L 181 165.414062 "/>
<path style="fill:none;stroke-width:1.2;stroke-linecap:butt;stroke-linejoin:miter;stroke:rgb(0%,0%,0%);stroke-opacity:1;stroke-miterlimit:10;" d="M 201.054688 158.175781 L 192.777344 164.199219 "/>
<path style="fill:none;stroke-width:1.2;stroke-linecap:butt;stroke-linejoin:miter;stroke:rgb(100%,0%,0%);stroke-opacity:1;stroke-miterlimit:10;" d="M 192.777344 164.199219 L 184.5 170.222656 "/>
<path style="fill:none;stroke-width:1.2;stroke-linecap:butt;stroke-linejoin:miter;stroke:rgb(0%,0%,0%);stroke-opacity:1;stroke-miterlimit:10;" d="M 199.304688 155.769531 L 220.980469 168.769531 "/>
<path style=" stroke:none;fill-rule:nonzero;fill:rgb(100%,100%,100%);fill-opacity:1;" d="M 174.75 162.316406 L 182.75 162.316406 L 182.75 173.316406 L 174.75 173.316406 Z M 174.75 162.316406 "/>
<g style="fill:rgb(100%,0%,0%);fill-opacity:1;">
  <use xlink:href="#glyph0-1" x="174.75" y="170.979492"/>
</g>
<path style="fill:none;stroke-width:1.2;stroke-linecap:butt;stroke-linejoin:miter;stroke:rgb(0%,0%,0%);stroke-opacity:1;stroke-miterlimit:10;" d="M 220.980469 168.769531 L 220.558594 194.042969 "/>
<path style="fill:none;stroke-width:1.2;stroke-linecap:butt;stroke-linejoin:miter;stroke:rgb(0%,0%,0%);stroke-opacity:1;stroke-miterlimit:10;" d="M 226.882812 171.398438 L 226.546875 191.613281 "/>
<path style="fill:none;stroke-width:1.2;stroke-linecap:butt;stroke-linejoin:miter;stroke:rgb(0%,0%,0%);stroke-opacity:1;stroke-miterlimit:10;" d="M 243.074219 156.5 L 220.980469 168.769531 "/>
<path style="fill:none;stroke-width:1.2;stroke-linecap:butt;stroke-linejoin:miter;stroke:rgb(0%,0%,0%);stroke-opacity:1;stroke-miterlimit:10;" d="M 220.558594 194.042969 L 242.234375 207.042969 "/>
<path style="fill:none;stroke-width:1.2;stroke-linecap:butt;stroke-linejoin:miter;stroke:rgb(0%,0%,0%);stroke-opacity:1;stroke-miterlimit:10;" d="M 242.234375 207.042969 L 264.328125 194.769531 "/>
<path style="fill:none;stroke-width:1.2;stroke-linecap:butt;stroke-linejoin:miter;stroke:rgb(0%,0%,0%);stroke-opacity:1;stroke-miterlimit:10;" d="M 241.554688 200.617188 L 259.230469 190.800781 "/>
<path style="fill:none;stroke-width:1.2;stroke-linecap:butt;stroke-linejoin:miter;stroke:rgb(0%,0%,0%);stroke-opacity:1;stroke-miterlimit:10;" d="M 264.328125 194.769531 L 264.75 169.5 "/>
<path style="fill:none;stroke-width:1.2;stroke-linecap:butt;stroke-linejoin:miter;stroke:rgb(0%,0%,0%);stroke-opacity:1;stroke-miterlimit:10;" d="M 264.75 169.5 L 243.074219 156.5 "/>
<path style="fill:none;stroke-width:1.2;stroke-linecap:butt;stroke-linejoin:miter;stroke:rgb(0%,0%,0%);stroke-opacity:1;stroke-miterlimit:10;" d="M 259.523438 173.300781 L 242.183594 162.898438 "/>
<path style="fill:none;stroke-width:1.2;stroke-linecap:butt;stroke-linejoin:miter;stroke:rgb(0%,0%,0%);stroke-opacity:1;stroke-miterlimit:10;" d="M 243.074219 156.5 L 243.285156 143.863281 "/>
<path style="fill:none;stroke-width:1.2;stroke-linecap:butt;stroke-linejoin:miter;stroke:rgb(100%,0%,0%);stroke-opacity:1;stroke-miterlimit:10;" d="M 243.285156 143.863281 L 243.496094 131.230469 "/>
<path style="fill:none;stroke-width:1.2;stroke-linecap:butt;stroke-linejoin:miter;stroke:rgb(100%,0%,0%);stroke-opacity:1;stroke-miterlimit:10;" d="M 243.496094 131.230469 L 232.660156 124.730469 "/>
<path style="fill:none;stroke-width:1.2;stroke-linecap:butt;stroke-linejoin:miter;stroke:rgb(0%,0%,0%);stroke-opacity:1;stroke-miterlimit:10;" d="M 232.660156 124.730469 L 221.820312 118.230469 "/>
<path style=" stroke:none;fill-rule:nonzero;fill:rgb(100%,100%,100%);fill-opacity:1;" d="M 239.496094 125.730469 L 247.496094 125.730469 L 247.496094 136.730469 L 239.496094 136.730469 Z M 239.496094 125.730469 "/>
<g style="fill:rgb(100%,0%,0%);fill-opacity:1;">
  <use xlink:href="#glyph0-1" x="239.496094" y="134.393555"/>
</g>
<path style="fill:none;stroke-width:1.2;stroke-linecap:butt;stroke-linejoin:miter;stroke:rgb(0%,0%,0%);stroke-opacity:1;stroke-miterlimit:10;" d="M 224.792969 118.277344 L 225.003906 105.644531 "/>
<path style="fill:none;stroke-width:1.2;stroke-linecap:butt;stroke-linejoin:miter;stroke:rgb(100%,0%,0%);stroke-opacity:1;stroke-miterlimit:10;" d="M 225.003906 105.644531 L 225.214844 93.007812 "/>
<path style="fill:none;stroke-width:1.2;stroke-linecap:butt;stroke-linejoin:miter;stroke:rgb(0%,0%,0%);stroke-opacity:1;stroke-miterlimit:10;" d="M 218.847656 118.179688 L 219.058594 105.542969 "/>
<path style="fill:none;stroke-width:1.2;stroke-linecap:butt;stroke-linejoin:miter;stroke:rgb(100%,0%,0%);stroke-opacity:1;stroke-miterlimit:10;" d="M 219.058594 105.542969 L 219.269531 92.90625 "/>
<path style=" stroke:none;fill-rule:nonzero;fill:rgb(100%,100%,100%);fill-opacity:1;" d="M 218.242188 87.457031 L 226.242188 87.457031 L 226.242188 98.457031 L 218.242188 98.457031 Z M 218.242188 87.457031 "/>
<g style="fill:rgb(100%,0%,0%);fill-opacity:1;">
  <use xlink:href="#glyph0-1" x="218.242188" y="96.120117"/>
</g>
<path style=" stroke:none;fill-rule:nonzero;fill:rgb(100%,100%,100%);fill-opacity:1;" d="M 25.550781 122.925781 L 40.550781 122.925781 L 40.550781 133.925781 L 25.550781 133.925781 Z M 25.550781 122.925781 "/>
<g style="fill:rgb(100%,0%,0%);fill-opacity:1;">
  <use xlink:href="#glyph0-3" x="25.550781" y="131.588867"/>
  <use xlink:href="#glyph0-1" x="32.56543" y="131.588867"/>
</g>
</g>
</svg>

<svg xmlns="http://www.w3.org/2000/svg" xmlns:xlink="http://www.w3.org/1999/xlink" width="300pt" height="300pt" viewBox="0 0 300 300"><defs><symbol overflow="visible"><path d="M.453 1.594v-7.938h4.5v7.938zm.5-.5h3.5v-6.938h-3.5zm0 0"/></symbol><symbol overflow="visible" id="a"><path d="M3.547-5.953c-.65 0-1.164.242-1.547.72-.375.48-.563 1.13-.563 1.952 0 .835.188 1.49.563 1.967.383.48.898.72 1.547.72.644 0 1.156-.24 1.53-.72.376-.476.564-1.132.564-1.968 0-.822-.187-1.474-.562-1.954-.375-.477-.887-.72-1.53-.72zm0-.734c.914 0 1.648.312 2.203.937.55.617.828 1.438.828 2.47 0 1.042-.277 1.87-.828 2.483-.555.617-1.29.922-2.203.922-.93 0-1.668-.305-2.22-.922C.774-1.41.5-2.237.5-3.28c0-1.033.273-1.853.828-2.47.55-.625 1.29-.938 2.22-.938zm0 0"/></symbol><symbol overflow="visible" id="b"><path d="M.89-6.563H2.08l2.906 5.485v-5.484h.86V0H4.656L1.75-5.484V0H.89zm0 0"/></symbol><symbol overflow="visible" id="c"><path d="M.89-6.563h.876v2.688H5v-2.688h.89V0H5v-3.125H1.766V0H.89zm0 0"/></symbol></defs><g><path fill="#fff" d="M0 0h300v300H0z"/><path d="M70.234 198.2l-25.09-3.063M68.445 191.988l-20.07-2.45M85.426 178l-15.192 20.2M45.145 195.137L35.25 171.88M35.25 171.88l15.195-20.196M41.523 173.438l12.153-16.16M50.445 151.684l25.09 3.058M50.445 151.684l-4.95-11.63" stroke-width="1.2" stroke="#000" stroke-miterlimit="10" fill="none"/><path d="M45.496 140.055l-4.945-11.63" stroke-width="1.2" stroke="#f00" stroke-miterlimit="10" fill="none"/><path d="M75.535 154.742L85.425 178M71.05 159.398l7.915 18.606M75.535 154.742l15.192-20.195M90.727 134.547l25.09 3.058M92.516 140.754l20.07 2.45M115.816 137.605l17.223-18.496M115.816 137.605l6.137 11.047" stroke-width="1.2" stroke="#000" stroke-miterlimit="10" fill="none"/><path d="M121.953 148.652l6.133 11.05" stroke-width="1.2" stroke="#00f" stroke-miterlimit="10" fill="none"/><path d="M135.957 118.54l-2.422-12.407" stroke-width="1.2" stroke="#000" stroke-miterlimit="10" fill="none"/><path d="M133.535 106.133l-2.422-12.403" stroke-width="1.2" stroke="#f00" stroke-miterlimit="10" fill="none"/><path d="M130.12 119.676l-2.42-12.403" stroke-width="1.2" stroke="#000" stroke-miterlimit="10" fill="none"/><path d="M127.7 107.273l-2.423-12.402" stroke-width="1.2" stroke="#f00" stroke-miterlimit="10" fill="none"/><path d="M133.04 119.11l11.456 5.328" stroke-width="1.2" stroke="#000" stroke-miterlimit="10" fill="none"/><path d="M144.496 124.438l11.457 5.332" stroke-width="1.2" stroke="#00f" stroke-miterlimit="10" fill="none"/><path d="M124.195 88.8h8v11h-8zm0 0" fill="#fff"/><use xlink:href="#a" x="124.195" y="97.464" fill="#f00"/><path d="M155.953 129.77l-1.527 12.546" stroke-width="1.2" stroke="#00f" stroke-miterlimit="10" fill="none"/><path d="M154.426 142.316l-1.53 12.543" stroke-width="1.2" stroke="#000" stroke-miterlimit="10" fill="none"/><path d="M155.953 129.77l11.05-6.133" stroke-width="1.2" stroke="#00f" stroke-miterlimit="10" fill="none"/><path d="M167.004 123.637l11.047-6.137" stroke-width="1.2" stroke="#000" stroke-miterlimit="10" fill="none"/><path d="M152.953 124.27h7v11h-7zm0 0" fill="#fff"/><use xlink:href="#b" x="152.953" y="132.933" fill="#00f"/><path d="M150.617 156.773l6.586 7.836" stroke-width="1.2" stroke="#000" stroke-miterlimit="10" fill="none"/><path d="M157.203 164.61l6.586 7.835" stroke-width="1.2" stroke="#f00" stroke-miterlimit="10" fill="none"/><path d="M155.172 152.945l6.586 7.836" stroke-width="1.2" stroke="#000" stroke-miterlimit="10" fill="none"/><path d="M161.758 160.78l6.586 7.837" stroke-width="1.2" stroke="#f00" stroke-miterlimit="10" fill="none"/><path d="M152.895 154.86l-12.403 2.42" stroke-width="1.2" stroke="#000" stroke-miterlimit="10" fill="none"/><path d="M140.492 157.28l-12.406 2.423" stroke-width="1.2" stroke="#00f" stroke-miterlimit="10" fill="none"/><path d="M162.066 165.03h8v11h-8zm0 0" fill="#fff"/><use xlink:href="#a" x="162.066" y="173.694" fill="#f00"/><path d="M121.086 154.203h14v11h-14zm0 0" fill="#fff"/><g fill="#00f"><use xlink:href="#b" x="121.086" y="162.866"/><use xlink:href="#c" x="128.063" y="162.866"/></g><path d="M178.05 117.5l21.677 13M177.16 123.898L194.5 134.3M199.727 130.5l-.422 25.27M199.727 130.5l22.093-12.27M197.555 153.367l-8.278 6.024" stroke-width="1.2" stroke="#000" stroke-miterlimit="10" fill="none"/><path d="M189.277 159.39L181 165.415" stroke-width="1.2" stroke="#f00" stroke-miterlimit="10" fill="none"/><path d="M201.055 158.176l-8.278 6.023" stroke-width="1.2" stroke="#000" stroke-miterlimit="10" fill="none"/><path d="M192.777 164.2l-8.277 6.023" stroke-width="1.2" stroke="#f00" stroke-miterlimit="10" fill="none"/><path d="M199.305 155.77l21.675 13" stroke-width="1.2" stroke="#000" stroke-miterlimit="10" fill="none"/><path d="M174.75 162.316h8v11h-8zm0 0" fill="#fff"/><use xlink:href="#a" x="174.75" y="170.979" fill="#f00"/><path d="M220.98 168.77l-.42 25.273M226.883 171.398l-.336 20.215M243.074 156.5l-22.094 12.27M220.56 194.043l21.674 13M242.234 207.043l22.094-12.273M241.555 200.617l17.675-9.816M264.328 194.77l.422-25.27M264.75 169.5l-21.676-13M259.523 173.3l-17.34-10.402M243.074 156.5l.21-12.637" stroke-width="1.2" stroke="#000" stroke-miterlimit="10" fill="none"/><path d="M243.285 143.863l.21-12.633M243.496 131.23l-10.836-6.5" stroke-width="1.2" stroke="#f00" stroke-miterlimit="10" fill="none"/><path d="M232.66 124.73l-10.84-6.5" stroke-width="1.2" stroke="#000" stroke-miterlimit="10" fill="none"/><path d="M239.496 125.73h8v11h-8zm0 0" fill="#fff"/><use xlink:href="#a" x="239.496" y="134.394" fill="#f00"/><path d="M224.793 118.277l.21-12.632" stroke-width="1.2" stroke="#000" stroke-miterlimit="10" fill="none"/><path d="M225.004 105.645l.21-12.637" stroke-width="1.2" stroke="#f00" stroke-miterlimit="10" fill="none"/><path d="M218.848 118.18l.21-12.637" stroke-width="1.2" stroke="#000" stroke-miterlimit="10" fill="none"/><path d="M219.06 105.543l.21-12.637" stroke-width="1.2" stroke="#f00" stroke-miterlimit="10" fill="none"/><path d="M218.242 87.457h8v11h-8zm0 0" fill="#fff"/><use xlink:href="#a" x="218.242" y="96.12" fill="#f00"/><path d="M25.55 122.926h15v11h-15zm0 0" fill="#fff"/><g fill="#f00"><use xlink:href="#c" x="25.551" y="131.589"/><use xlink:href="#a" x="32.565" y="131.589"/></g></g></svg>
